packages/blockchain-info-components/src/Images/img/sell.svg

<svg fill="none" height="24" viewBox="0 0 24 24" width="24" xmlns="http://www.w3.org/2000/svg"><path clip-rule="evenodd" d="m.75 4.5c0-.82843.67157-1.5 1.5-1.5h19.5c.8284 0 1.5.67157 1.5 1.5v10.5c0 .8284-.6716 1.5-1.5 1.5h-19.5c-.82843 0-1.5-.6716-1.5-1.5zm2-.5c-.55228 0-1 .44772-1 1v2c1.65685 0 3-1.34315 3-3zm12.25 5.75c0 1.6569-1.3431 3-3 3s-3-1.3431-3-3c0-1.65685 1.3431-3 3-3s3 1.34315 3 3zm-13.25 2.75c1.65685 0 3 1.3431 3 3h-2c-.55228 0-1-.4477-1-1zm19.5-8.5h-2c0 1.65685 1.3431 3 3 3v-2c0-.55228-.4477-1-1-1zm-2 11.5c0-1.6569 1.3431-3 3-3v2c0 .5523-.4477 1-1 1zm-16.78033 3.0303c.14065.1407.33142.2197.53033.2197h18c.1989 0 .3897-.079.5303-.2197.1407-.1406.2197-.3314.2197-.5303s-.079-.3897-.2197-.5303c-.1406-.1407-.3314-.2197-.5303-.2197h-18c-.19891 0-.38968.079-.53033.2197-.14065.1406-.21967.3314-.21967.5303s.07902.3897.21967.5303zm1.5 2.25c.14065.1407.33142.2197.53033.2197h15c.1989 0 .3897-.079.5303-.2197.1407-.1406.2197-.3314.2197-.5303s-.079-.3897-.2197-.5303c-.1406-.1407-.3314-.2197-.5303-.2197h-15c-.19891 0-.38968.079-.53033.2197-.14065.1406-.21967.3314-.21967.5303s.07902.3897.21967.5303z" fill="#000" fill-rule="evenodd"/></svg>

<svg width="24" height="24" viewBox="0 0 24 24" fill="none" xmlns="http://www.w3.org/2000/svg">
<path fill-rule="evenodd" clip-rule="evenodd" d="M0.75 4.5C0.75 3.67157 1.42157 3 2.25 3H21.75C22.5784 3 23.25 3.67157 23.25 4.5V15C23.25 15.8284 22.5784 16.5 21.75 16.5H2.25C1.42157 16.5 0.75 15.8284 0.75 15V4.5ZM2.75 4C2.19772 4 1.75 4.44772 1.75 5V7C3.40685 7 4.75 5.65685 4.75 4H2.75ZM15 9.75C15 11.4069 13.6569 12.75 12 12.75C10.3431 12.75 9 11.4069 9 9.75C9 8.09315 10.3431 6.75 12 6.75C13.6569 6.75 15 8.09315 15 9.75ZM1.75 12.5C3.40685 12.5 4.75 13.8431 4.75 15.5H2.75C2.19772 15.5 1.75 15.0523 1.75 14.5V12.5ZM21.25 4H19.25C19.25 5.65685 20.5931 7 22.25 7V5C22.25 4.44772 21.8023 4 21.25 4ZM19.25 15.5C19.25 13.8431 20.5931 12.5 22.25 12.5V14.5C22.25 15.0523 21.8023 15.5 21.25 15.5H19.25ZM2.46967 18.5303C2.61032 18.671 2.80109 18.75 3 18.75H21C21.1989 18.75 21.3897 18.671 21.5303 18.5303C21.671 18.3897 21.75 18.1989 21.75 18C21.75 17.8011 21.671 17.6103 21.5303 17.4697C21.3897 17.329 21.1989 17.25 21 17.25H3C2.80109 17.25 2.61032 17.329 2.46967 17.4697C2.32902 17.6103 2.25 17.8011 2.25 18C2.25 18.1989 2.32902 18.3897 2.46967 18.5303ZM3.96967 20.7803C4.11032 20.921 4.30109 21 4.5 21H19.5C19.6989 21 19.8897 20.921 20.0303 20.7803C20.171 20.6397 20.25 20.4489 20.25 20.25C20.25 20.0511 20.171 19.8603 20.0303 19.7197C19.8897 19.579 19.6989 19.5 19.5 19.5H4.5C4.30109 19.5 4.11032 19.579 3.96967 19.7197C3.82902 19.8603 3.75 20.0511 3.75 20.25C3.75 20.4489 3.82902 20.6397 3.96967 20.7803Z" fill="black"/>
</svg>
